X:195
T:Lovisa. JJo5.195, The
B:J.Johnson Choice Collection Vol 5, 1750
Z:vmp.Ruairidh Greig 2015 www.village-music-project.org.uk
M:2
L:1/8
Q:1/4=80
K:A
A2e2|{d}cB/c/ AB|{d}cB/c/ Ae|dcB2|A2e2|
{d}cB/c/ AB|{d}cB/c/ Aa|gfe2:|
|:e2=g2|fe/f/ dc|(dc) "tr"(B^A)|(dc) "tr"(B^A)|
d2f2|ed "tr"(cB)|"Last Strain once""tr"(cB) (A^G)|{d}"tr"(cB)(AG)|
e2a2|"tr"(gf)ea|{a}gf/e/ ae|dcB2|
{d}cB/A/ Be|{d}"tr"c(B/A/) B2|{d}c(B/A/) Be|{d}cB/A/ Bc|
fe/d/ gf/e/|fb {a}g2|ae {d}c(B/A/)|"tr"B2A2:|

